icon/ir/map.svg

<svg stroke-width="1.5" viewBox="0 0 24 24" fill="none" xmlns="http://www.w3.org/2000/svg" height="1em" width="1em">
  <path d="M9 19L3.78974 20.7368C3.40122 20.8663 3 20.5771 3 20.1675L3 5.43246C3 5.1742 3.16526 4.94491 3.41026 4.86325L9 3M9 19L15 21M9 19L9 3M15 21L20.5897 19.1368C20.8347 19.0551 21 18.8258 21 18.5675L21 3.83246C21 3.42292 20.5988 3.13374 20.2103 3.26325L15 5M15 21L15 5M15 5L9 3" stroke="currentColor" stroke-linecap="round" stroke-linejoin="round"/>
</svg>

<svg width="24" height="24" stroke-width="1.5" fill="none" xmlns="http://www.w3.org/2000/svg"><path d="m9 19-5.21 1.737a.6.6 0 0 1-.79-.57V5.433a.6.6 0 0 1 .41-.569L9 3m0 16 6 2m-6-2V3m6 18 5.59-1.863a.6.6 0 0 0 .41-.57V3.832a.6.6 0 0 0-.79-.569L15 5m0 16V5m0 0L9 3" stroke="currentColor" stroke-linecap="round" stroke-linejoin="round"/></svg>
